!!!!SEGMENT: pl-sa--l-1636--034_anonim--keyboard-piece.krn
!!!cenid: 17xx:741
!!!COM: Anonim
!!!COM-rismid: pe30004985
!!!CDT:
!!!CNT:
!!!OTL: [Keyboard piece]
!!!PDT:
!!!AGN: Secular
!!!SMS-siglum: PL-SA
!!!SMS-shelfmark: L 1636
!!!SMS-shelfwork: 034 W
!!!SMS-variant:
!!!SMS-altvar:
!!!NIFC-rismid: 1001076508
!!!URL-scan: http://repozytorium.nifc.pl/skany/pl-sa-nut--l1636
!!!ONB-nifc: 10r, skan 0013, s. 5-6
**kern	**kern
*part1	*part1
*staff2	*staff1
*I"Organo	*
*I'Org.	*
*group1	*group1
*clefF4	*clefC1
*k[b-]	*k[b-]
*F:	*F:
*M2/2	*M2/2
*met(c|)	*met(c|)
=1	=1
*2\right	*2\right
!	!LO:TX:a:t=P:problem:8\right:global
1r	8f/L
.	8g/J
.	8a\L
.	8b-\J
!	!LO:TX:a:t=P:problem:4\right:global
.	4cc\
.	4cc\
*clefC3	*
=2	=2
8B-/L	2dd\
8c/	.
8d/	.
8e/J	.
!LO:TX:a:t=P:problem:4\right:global	!
4f\	2cc\
4f\	.
=3	=3
*^	*
*2\right	*2\right	*
2g\	2b-/	8b-\L
.	.	8cc\
.	.	8dd\
.	.	8ee\J
2d\	2f/	4ff\
.	.	4ff\
=4	=4	=4
8g/L	2e\	2gg\
8f/	.	.
8g/	.	.
8a/J	.	.
8b-/L	2d\	2ff\
8f/J	.	.
[4b-/	.	.
=5	=5	=5
*	*	*^
4b-/]	2c\	4ee-X\	2ryy
4.a/	.	4cc\	.
.	8B-/L	2dd/	2b-\
8ryy	8c/J	.	.
4ryy	8d\L	.	.
.	8e\J	.	.
*v	*v	*	*
*clefF4	*	*
=6	=6	=6
8F\L	2a/ 2cc	2f\
8G\	.	.
8A\	.	.
!LO:TX:a:t=P:problem:kreska taktowa w środku taktu	!	!
8B-\J	.	.
=	=	=
4c\	2g/ 2cc	2e\
4c\	.	.
=7	=7	=7
8BB-/L	2b-/	2f/
8C/	.	.
8D/	.	.
8E/J	.	.
4F\	2a/	2f\
4F\	.	.
*	*v	*v
!!LO:LB:g=original
=8	=8
*^	*
2B-/	2G\	8B-/L
.	.	8c/
.	.	8d/
.	.	8e/J
2A/	2F\	4f/
.	.	4f/
=9	=9	=9
8G/L	2E	2g/
8F/	.	.
8G/	.	.
8A/J	.	.
8B-/L	2D\	2f/
8F/J	.	.
[<4B-/	.	.
=10	=10	=10
*	*	*^
4B-/]	2C\	4e-X/	2ryy
4A/	.	4c/	.
8BB-/L	2ryy	2d/	2B-\
8C/	.	.	.
8D/	.	.	.
8E/J	.	.	.
*v	*v	*	*
=11	=11	=11
8FF/L	2e/	2A\ 2c
8GG/	.	.
8AA/	.	.
8BB-/J	.	.
4C/	2e/ 2g	2c\
4C/	.	.
*	*v	*v
=12	=12
*^	*
4A/	2D\	8f/L
.	.	8g/J
4F/	.	8a\L
.	.	8b-\J
4E/	2C\	4cc\
4A/	.	4cc\
=13	=13	=13
*	*	*^
4B-/	4BB-\	4dd\	2ryy
8A/L	4C\	8cc\L	.
8G/J	.	8b-\J	.
4F/	4D\	8a/L	2f\
.	.	8b-/J	.
4G/	4AA\	4cc/	.
=14	=14	=14	=14
8G/L	4BB-\	8b-/L	8g\L
8F/J	.	8a/J	8f\
4G/	4C\	4g/	8f\
.	.	.	8e\J
!LO:TX:a:t=P:problem: dziurka w nutach	!	!	!
2FF 2F/	2ryy	2f/	2A/ 2c
*v	*v	*	*
*	*v	*v
==	==
*-	*-
!!!system-decoration: [(g1)]
!!!RDF**kern: >= above
!!!RDF**kern: <= below
!!!ENC:Anna Matuszewska
!!!END:2020-12-07
!!!ENC: Tomasz Grochalski
!!!END: 2020-06-11
